X:749
T:Reel 749
M:4/4
K:Gmaj
L:1/8
 (3def |gG (3GGG EGDG|BGdB gfdg|cAAG FAeA|Bdfa bc'af|gG (3GGG BGdG|DG (3GGG gdeg|c'abg faef|ecAF G2|cdef |gGBG GGDG (3BAG |AGAG FAAc| (3BAG dG eGdB|cABG AGBd|gG (3GGG dGBG|cBAG FGAc|BG (3GGG eGBd|cBAB G2|
